X:1
T: The Britches Maker
C:
R:Jig
Q:180
K:Gm
M:6/8
L:1/16
|:A2|Bcd2B2 ABc2A2|B2G2G2 G4G2|BABcde f2d2B2|A2F2F2 F4A2|
Bcd2B2 ABc2A2|G2B2g2 f4e2|d2c2B2 A2B2c2|d2B2G2 G4:|
|:A2|B3cde f2d2B2|f2d2B2 f2d2B2|c3def g2e2c2|g2e2c2 g2e2c2|
B3cde f2g2a2|b2a2g2 f2e2d2|c2B2A2 d4A2|B2G2G2 G4:|
